img/Parceiros/dogs.svg

<svg width="152" height="39" viewBox="0 0 152 39" fill="none" xmlns="http://www.w3.org/2000/svg">
<path fill-rule="evenodd" clip-rule="evenodd" d="M23.0238 16.8501H25.7408C28.5488 16.8501 30.0658 20.1421 28.2368 22.2751L25.5768 25.3751C25.8648 27.2137 26.8358 28.876 28.2958 30.0301C29.7571 31.1848 31.5998 31.7468 33.4568 31.6041C35.3138 31.4614 37.049 30.6245 38.3168 29.2601C39.5835 27.8962 40.2889 26.1045 40.2918 24.2431C40.2915 23.9193 40.3551 23.5986 40.479 23.2994C40.6029 23.0002 40.7845 22.7284 41.0136 22.4995C41.2427 22.2706 41.5146 22.0892 41.8139 21.9655C42.1132 21.8419 42.434 21.7786 42.7578 21.7791C43.4115 21.7794 44.0383 22.0389 44.5009 22.5009C44.9634 22.9628 45.2237 23.5894 45.2248 24.2431C45.2246 26.829 44.4101 29.3492 42.8968 31.4461C41.7637 33.0129 40.2786 34.2917 38.561 35.1796C36.8433 36.0674 34.9412 36.5395 33.0077 36.5578C31.0743 36.5761 29.1636 36.1401 27.4294 35.2849C25.6953 34.4297 24.1862 33.1792 23.0238 31.6341C21.8613 33.1792 20.3523 34.4297 18.6181 35.2849C16.884 36.1401 14.9733 36.5761 13.0398 36.5578C11.1064 36.5395 9.20422 36.0674 7.48658 35.1796C5.76894 34.2917 4.28381 33.0129 3.15078 31.4461C1.63713 29.3493 0.822253 26.8291 0.821778 24.2431C0.821514 23.9192 0.885167 23.5984 1.00909 23.2992C1.13301 22.9999 1.31477 22.728 1.54394 22.4991C1.77311 22.2702 2.0452 22.0888 2.34461 21.9653C2.64402 21.8417 2.96487 21.7784 3.28878 21.7791C3.94247 21.7794 4.56935 22.0389 5.03186 22.5009C5.49437 22.9628 5.75472 23.5894 5.75578 24.2431C5.75301 26.1075 6.4553 27.9039 7.72178 29.2721C8.66741 30.2935 9.88181 31.0276 11.2257 31.3903C12.5695 31.753 13.9884 31.7295 15.3195 31.3226C16.6506 30.9156 17.8401 30.1417 18.7514 29.0895C19.6627 28.0374 20.259 26.7497 20.4718 25.3741L17.8098 22.2741C15.9818 20.1421 17.4978 16.8511 20.3098 16.8511H23.0238V16.8501Z" fill="#9C9C9C"/>
<path d="M34.5351 10.2801C35.1827 10.2806 35.8241 10.1535 36.4225 9.90614C37.021 9.65874 37.5648 9.29587 38.023 8.83823C38.4812 8.3806 38.8448 7.83718 39.0929 7.23901C39.341 6.64085 39.4689 5.99966 39.4691 5.35207C39.4689 4.70449 39.341 4.0633 39.0929 3.46513C38.8448 2.86697 38.4812 2.32355 38.023 1.86592C37.5648 1.40828 37.021 1.0454 36.4225 0.798008C35.8241 0.550613 35.1827 0.423548 34.5351 0.424074C33.8876 0.42368 33.2464 0.550841 32.648 0.798295C32.0497 1.04575 31.5059 1.40865 31.0479 1.86627C30.5898 2.32389 30.2263 2.86727 29.9783 3.46537C29.7302 4.06347 29.6024 4.70457 29.6021 5.35207C29.6024 5.99958 29.7302 6.64068 29.9783 7.23878C30.2263 7.83688 30.5898 8.38026 31.0479 8.83788C31.5059 9.2955 32.0497 9.6584 32.648 9.90585C33.2464 10.1533 33.8876 10.2805 34.5351 10.2801ZM11.5121 10.2801C12.1596 10.2805 12.8009 10.1533 13.3992 9.90585C13.9976 9.6584 14.5413 9.2955 14.9994 8.83788C15.4575 8.38026 15.8209 7.83688 16.069 7.23878C16.3171 6.64068 16.4449 5.99958 16.4451 5.35207C16.4449 4.70457 16.3171 4.06347 16.069 3.46537C15.8209 2.86727 15.4575 2.32389 14.9994 1.86627C14.5413 1.40865 13.9976 1.04575 13.3992 0.798295C12.8009 0.550841 12.1596 0.42368 11.5121 0.424074C10.8645 0.423548 10.2232 0.550613 9.62473 0.798008C9.02626 1.0454 8.4824 1.40828 8.02421 1.86592C7.56602 2.32355 7.20248 2.86697 6.95436 3.46513C6.70623 4.0633 6.57839 4.70449 6.57812 5.35207C6.57839 5.99966 6.70623 6.64085 6.95436 7.23901C7.20248 7.83718 7.56602 8.3806 8.02421 8.83823C8.4824 9.29587 9.02626 9.65874 9.62473 9.90614C10.2232 10.1535 10.8645 10.2806 11.5121 10.2801ZM79.4451 1.62807C80.2051 1.62807 80.8291 1.84507 81.3171 2.27907C81.8051 2.71307 82.0491 3.28307 82.0491 3.98907V28.3241C82.0491 29.0571 81.8191 29.6401 81.3571 30.0741C80.8971 30.5081 80.2861 30.7251 79.5271 30.7251C78.7671 30.7251 78.1571 30.5081 77.6951 30.0751C77.2341 29.6401 77.0031 29.0571 77.0031 28.3251V27.3071C76.4061 28.4191 75.5381 29.2871 74.3981 29.9111C73.2861 30.5351 72.0111 30.8471 70.5731 30.8471C68.8631 30.8471 67.3311 30.4131 65.9751 29.5451C64.6451 28.6771 63.6011 27.4561 62.8411 25.8821C62.1081 24.2821 61.7421 22.4511 61.7421 20.3891C61.7421 18.3271 62.1081 16.5231 62.8411 14.9761C63.6011 13.4301 64.6451 12.2361 65.9751 11.3951C67.3041 10.5541 68.8371 10.1331 70.5731 10.1331C72.0111 10.1331 73.2861 10.4321 74.3991 11.0291C75.4836 11.5989 76.3754 12.4767 76.9621 13.5521V3.90707C76.9621 3.22907 77.1791 2.68607 77.6131 2.27907C78.0751 1.84507 78.6851 1.62807 79.4451 1.62807ZM71.9161 26.9001C73.5441 26.9001 74.7921 26.3441 75.6601 25.2311C76.5551 24.1191 77.0031 22.5311 77.0031 20.4701C77.0031 18.4081 76.5551 16.8341 75.6601 15.7501C74.7921 14.6371 73.5581 14.0801 71.9571 14.0801C70.3291 14.0801 69.0671 14.6231 68.1721 15.7091C67.2771 16.7941 66.8291 18.3541 66.8291 20.3891C66.8291 22.4511 67.2771 24.0511 68.1721 25.1911C69.0671 26.3311 70.3151 26.9001 71.9161 26.9001ZM96.3571 30.8471C94.3231 30.8471 92.5321 30.4271 90.9861 29.5861C89.4661 28.7451 88.2861 27.5381 87.4451 25.9641C86.6041 24.3901 86.1831 22.5591 86.1831 20.4701C86.1831 18.3811 86.6031 16.5631 87.4451 15.0171C88.2861 13.4431 89.4661 12.2361 90.9851 11.3951C92.5321 10.5541 94.3231 10.1331 96.3571 10.1331C98.3921 10.1331 100.169 10.5531 101.688 11.3951C103.211 12.2117 104.447 13.4759 105.229 15.0171C106.07 16.5631 106.491 18.3811 106.491 20.4701C106.491 22.5601 106.07 24.3901 105.229 25.9641C104.447 27.5052 103.211 28.7694 101.688 29.5861C100.169 30.4261 98.3921 30.8471 96.3581 30.8471H96.3571ZM96.3171 26.9001C97.9721 26.9001 99.2331 26.3571 100.101 25.2721C100.97 24.1871 101.404 22.5861 101.404 20.4701C101.404 18.3811 100.97 16.7941 100.101 15.7091C99.2331 14.5961 97.9851 14.0401 96.3571 14.0401C94.7301 14.0401 93.4671 14.5961 92.5731 15.7091C91.7051 16.7941 91.2701 18.3811 91.2701 20.4701C91.2701 22.5861 91.7041 24.1871 92.5731 25.2721C93.4411 26.3571 94.6891 26.9001 96.3171 26.9001ZM127.538 10.2151C128.298 10.2151 128.908 10.4321 129.369 10.8651C129.831 11.3001 130.061 11.8831 130.061 12.6151V28.6901C130.061 31.8101 129.193 34.1701 127.457 35.7721C125.72 37.3721 123.157 38.1721 119.765 38.1721C116.808 38.1721 114.339 37.6171 112.359 36.5041C111.355 35.9071 110.853 35.1881 110.853 34.3471C110.853 33.7501 110.989 33.2761 111.26 32.9231C111.558 32.5701 111.938 32.3931 112.399 32.3931C112.644 32.3931 112.942 32.4481 113.295 32.5571C113.647 32.6921 114.014 32.8421 114.393 33.0041C115.243 33.3656 116.113 33.6781 116.998 33.9401C117.785 34.1571 118.68 34.2661 119.684 34.2661C123.238 34.2661 125.015 32.5301 125.015 29.0561V26.4521C124.418 27.5651 123.55 28.4321 122.411 29.0571C121.271 29.6541 119.969 29.9521 118.504 29.9521C116.767 29.9521 115.221 29.5451 113.864 28.7321C112.535 27.8901 111.491 26.7241 110.731 25.2321C109.971 23.7391 109.591 22.0171 109.591 20.0631C109.591 18.1101 109.958 16.3871 110.69 14.8951C111.45 13.3751 112.508 12.2091 113.864 11.3951C115.221 10.5541 116.767 10.1331 118.504 10.1331C119.969 10.1331 121.271 10.4451 122.411 11.0691C123.521 11.6373 124.43 12.5322 125.015 13.6331V12.5751C125.015 11.8701 125.246 11.3001 125.707 10.8651C126.168 10.4321 126.779 10.2151 127.538 10.2151ZM119.847 26.0051C121.475 26.0051 122.736 25.4751 123.631 24.4181C124.554 23.3591 125.015 21.9081 125.015 20.0631C125.015 18.1911 124.554 16.7261 123.631 15.6681C122.736 14.6101 121.475 14.0811 119.847 14.0811C118.246 14.0811 116.984 14.6101 116.062 15.6681C115.14 16.7261 114.678 18.1911 114.678 20.0631C114.678 21.9081 115.14 23.3591 116.062 24.4181C116.984 25.4761 118.246 26.0051 119.847 26.0051ZM142.533 30.8471C139.576 30.8471 137.189 30.2641 135.371 29.0971C134.503 28.5821 134.069 27.8491 134.069 26.9001C134.069 26.3571 134.218 25.9231 134.516 25.5981C134.815 25.2451 135.181 25.0681 135.615 25.0681C136.076 25.0681 136.714 25.2861 137.528 25.7201C138.396 26.1271 139.183 26.4391 139.888 26.6561C140.621 26.8731 141.543 26.9811 142.655 26.9811C143.795 26.9811 144.677 26.7911 145.301 26.4111C145.952 26.0311 146.277 25.5031 146.277 24.8241C146.277 24.3641 146.142 23.9971 145.87 23.7261C145.626 23.4541 145.165 23.2101 144.487 22.9931C143.835 22.7491 142.832 22.4781 141.475 22.1791C139.061 21.6911 137.324 20.9991 136.266 20.1041C135.235 19.2091 134.72 17.9741 134.72 16.4011C134.72 15.2071 135.072 14.1351 135.778 13.1851C136.483 12.2091 137.446 11.4631 138.667 10.9471C139.915 10.4051 141.326 10.1331 142.899 10.1331C144.039 10.1331 145.138 10.2831 146.196 10.5811C147.205 10.8313 148.168 11.2433 149.045 11.8011C149.913 12.3441 150.347 13.0631 150.347 13.9591C150.347 14.5011 150.198 14.9631 149.899 15.3421C149.601 15.6951 149.234 15.8721 148.8 15.8721C148.502 15.8721 148.203 15.8171 147.905 15.7091C147.548 15.5273 147.195 15.3372 146.847 15.1391C146.06 14.7321 145.382 14.4341 144.812 14.2441C144.242 14.0271 143.537 13.9181 142.696 13.9181C141.692 13.9181 140.892 14.1221 140.295 14.5281C139.725 14.9351 139.44 15.4921 139.44 16.1971C139.44 16.8751 139.739 17.3911 140.336 17.7431C140.933 18.0961 142.086 18.4491 143.795 18.8021C145.613 19.1821 147.037 19.6151 148.068 20.1041C149.099 20.5921 149.831 21.2031 150.265 21.9351C150.727 22.6681 150.957 23.6041 150.957 24.7431C150.957 26.5881 150.184 28.0671 148.638 29.1791C147.118 30.2911 145.083 30.8471 142.533 30.8471Z" fill="#9C9C9C"/>
</svg>

<svg width="152" height="39" fill="none" xmlns="http://www.w3.org/2000/svg"><path fill-rule="evenodd" clip-rule="evenodd" d="M23.024 16.85h2.717c2.808 0 4.325 3.292 2.496 5.425l-2.66 3.1a7.392 7.392 0 0 0 2.719 4.655 7.409 7.409 0 0 0 10.02-.77 7.39 7.39 0 0 0 1.976-5.017 2.46 2.46 0 0 1 2.466-2.464 2.468 2.468 0 0 1 2.467 2.464A12.31 12.31 0 0 1 38.56 35.18a12.35 12.35 0 0 1-15.537-3.546 12.348 12.348 0 0 1-19.873-.188 12.31 12.31 0 0 1-2.33-7.203A2.462 2.462 0 0 1 3.29 21.78a2.468 2.468 0 0 1 2.467 2.464 7.387 7.387 0 0 0 5.47 7.147 7.404 7.404 0 0 0 9.246-6.016l-2.662-3.1c-1.828-2.132-.312-5.423 2.5-5.423h2.714Z" fill="#9C9C9C"/><path d="M34.535 10.28a4.93 4.93 0 0 0 4.558-6.815 4.93 4.93 0 0 0-4.558-3.04 4.93 4.93 0 0 0-4.557 6.814 4.929 4.929 0 0 0 4.557 3.041Zm-23.023 0a4.93 4.93 0 0 0 4.557-6.815A4.93 4.93 0 0 0 9.625.798a4.93 4.93 0 0 0-2.67 6.441 4.93 4.93 0 0 0 4.557 3.041Zm67.933-8.652c.76 0 1.384.217 1.872.651.488.434.732 1.004.732 1.71v24.335c0 .733-.23 1.316-.692 1.75-.46.434-1.07.651-1.83.651s-1.37-.217-1.832-.65c-.46-.435-.692-1.018-.692-1.75v-1.018c-.597 1.112-1.465 1.98-2.605 2.604-1.112.624-2.387.936-3.825.936-1.71 0-3.242-.434-4.598-1.302-1.33-.868-2.374-2.089-3.134-3.663-.733-1.6-1.099-3.43-1.099-5.493 0-2.062.366-3.866 1.1-5.413.76-1.546 1.803-2.74 3.133-3.58 1.33-.842 2.862-1.263 4.598-1.263 1.438 0 2.713.3 3.826.896a6.21 6.21 0 0 1 2.563 2.523V3.907c0-.678.217-1.22.651-1.628.462-.434 1.072-.65 1.832-.65ZM71.916 26.9c1.628 0 2.876-.556 3.744-1.669.895-1.112 1.343-2.7 1.343-4.76 0-2.063-.448-3.637-1.343-4.72-.868-1.114-2.102-1.67-3.703-1.67-1.628 0-2.89.542-3.785 1.628-.895 1.085-1.343 2.645-1.343 4.68 0 2.062.448 3.662 1.343 4.802.895 1.14 2.143 1.71 3.744 1.71Zm24.441 3.947c-2.034 0-3.825-.42-5.37-1.26-1.52-.842-2.7-2.049-3.542-3.623-.84-1.574-1.262-3.405-1.262-5.494s.42-3.907 1.262-5.453c.841-1.574 2.021-2.78 3.54-3.622 1.547-.84 3.338-1.262 5.372-1.262 2.035 0 3.812.42 5.331 1.262a8.446 8.446 0 0 1 3.541 3.622c.841 1.546 1.262 3.364 1.262 5.453 0 2.09-.421 3.92-1.262 5.494a8.448 8.448 0 0 1-3.541 3.622c-1.519.84-3.296 1.261-5.33 1.261Zm-.04-3.947c1.655 0 2.916-.543 3.784-1.628.869-1.085 1.303-2.686 1.303-4.802 0-2.089-.434-3.676-1.303-4.76-.868-1.114-2.116-1.67-3.744-1.67-1.627 0-2.89.556-3.784 1.67-.868 1.084-1.303 2.671-1.303 4.76 0 2.116.434 3.717 1.303 4.802.868 1.085 2.116 1.628 3.744 1.628Zm31.221-16.685c.76 0 1.37.217 1.831.65.462.435.692 1.018.692 1.75V28.69c0 3.12-.868 5.48-2.604 7.082-1.737 1.6-4.3 2.4-7.692 2.4-2.957 0-5.426-.555-7.406-1.668-1.004-.597-1.506-1.316-1.506-2.157 0-.597.136-1.07.407-1.424.298-.353.678-.53 1.139-.53.245 0 .543.055.896.164.352.135.719.285 1.098.447.85.362 1.72.674 2.605.936.787.217 1.682.326 2.686.326 3.554 0 5.331-1.736 5.331-5.21v-2.604c-.597 1.113-1.465 1.98-2.604 2.605-1.14.597-2.442.895-3.907.895-1.737 0-3.283-.407-4.64-1.22-1.329-.842-2.373-2.008-3.133-3.5-.76-1.493-1.14-3.215-1.14-5.169 0-1.953.367-3.676 1.099-5.168.76-1.52 1.818-2.686 3.174-3.5 1.357-.84 2.903-1.262 4.64-1.262 1.465 0 2.767.312 3.907.936a6.092 6.092 0 0 1 2.604 2.564v-1.058c0-.705.231-1.275.692-1.71.461-.433 1.072-.65 1.831-.65Zm-7.691 15.79c1.628 0 2.889-.53 3.784-1.587.923-1.059 1.384-2.51 1.384-4.355 0-1.872-.461-3.337-1.384-4.395-.895-1.058-2.156-1.587-3.784-1.587-1.601 0-2.863.53-3.785 1.587-.922 1.058-1.384 2.523-1.384 4.395 0 1.845.462 3.296 1.384 4.355.922 1.058 2.184 1.587 3.785 1.587Zm22.686 4.842c-2.957 0-5.344-.583-7.162-1.75-.868-.515-1.302-1.248-1.302-2.197 0-.543.149-.977.447-1.302.299-.353.665-.53 1.099-.53.461 0 1.099.218 1.913.652.868.407 1.655.72 2.36.936.733.217 1.655.325 2.767.325 1.14 0 2.022-.19 2.646-.57.651-.38.976-.908.976-1.587 0-.46-.135-.827-.407-1.098-.244-.272-.705-.516-1.383-.733-.652-.244-1.655-.515-3.012-.814-2.414-.488-4.151-1.18-5.209-2.075-1.031-.895-1.546-2.13-1.546-3.703 0-1.194.352-2.266 1.058-3.216.705-.976 1.668-1.722 2.889-2.238 1.248-.542 2.659-.814 4.232-.814 1.14 0 2.239.15 3.297.448a9.628 9.628 0 0 1 2.849 1.22c.868.543 1.302 1.262 1.302 2.158 0 .542-.149 1.004-.448 1.383-.298.353-.665.53-1.099.53-.298 0-.597-.055-.895-.163a25.86 25.86 0 0 1-1.058-.57c-.787-.407-1.465-.705-2.035-.895-.57-.217-1.275-.326-2.116-.326-1.004 0-1.804.204-2.401.61-.57.407-.855.964-.855 1.67 0 .677.299 1.193.896 1.545.597.353 1.75.706 3.459 1.06 1.818.38 3.242.812 4.273 1.301 1.031.488 1.763 1.1 2.197 1.831.462.733.692 1.67.692 2.808 0 1.845-.773 3.324-2.319 4.436-1.52 1.112-3.555 1.668-6.105 1.668Z" fill="#9C9C9C"/></svg>
